X: 21
T: The Follies of a Day
%R: march, reel
B: "Le Sylphe, Twenty Four Country Dances with Figures for the Year 1818", Button & Whitaker, p.11 #1
F: http://www.vwml.org/browse/browse-collections-dance-tune-books/browse-button1818
Z: 2014 John Chambers <jc:trillian.mit.edu>
N: The Figures by Mr WILSON.
M: 2/4
L: 1/8
K: G
% - - - - - - - - - - - - - - - - - - - - - - - - - - - - -
|:\
g2Bd | (gb).a.g | f2(df) | (ac').b.a |\
g2Bd | (gb).a.g | (fa)(df) | g4z2 :|
|:\
gz fz | gz ^gz | a3=g fedc |\
Bdg2 | cea2 | (gf).e.f | g2z2 :|
% - - - - - - - - - - Dance description - - - - - - - - - -
%%center SINGLE FIGURE        (Each strain repeated)
%%begintext align
%% The 1st Lady & 2d Gent change places & set 1st Gent: & 2d Lady do same
%% and back |: cross over one Cu: & half figure round 3d Cu: |: .
%%endtext
%%center OR THUS
%%begintext align
%% Hands across quite round with 2d Cu: & back again |:
%% down the mid: up again & lead round the top Cu: |: .
%%endtext
%%sep 1 1 450

%%sep 1 1 500
%%sep 1 1 500

